X:18
T:Vals efter Denis Emanuelsson
R:vals
H:efter Denis Emanuelsson, N\"ossemark
A:Dalsland
Z:id:hn-vals-18
M:3/4
L:1/8
K:Ddor
AB|A2 GB AG|FE D^C D2|f2 eg fe|d2 ^ce A2|
ag2b a2|a2 ge f2|(3fgf ed ^ce|d4:|
|:ed|^ce ac ea|^ce ac ea|a^g ba ga|f3 fed|
^ce ac ea|^ce ac ea|a^g ba ga|f3 fe^c|
AB ^cd e^f|e4 d^f|e3 ^fed|^cd e^f ^g2|a4 ^g2|
e2 ^g^f df|e2 d2 B2|=c2 ed Bc|A4 g2|^f2 ag ef|d4:|
<end>
<start>
